X:278
T: O du schner Rosengarten (3-80), S. 223
N: P1053
O: Lothringen
S: PINCK, Louis: Verklingende Weisen, Bd3, Metz 1933]
R: Liebe, Beischlaf]
M: 3/4
L: 1/8
K: G
DD | G2D2GA | B2G2
AB | c2B2AG | A4
AB | cBA2dc | BAG2
DG | B2A2GF | G4

@@@ Tune index: 7828
